X:1
T:Title
%%score { ( 1 4 ) | ( 2 3 ) }
L:1/8
M:4/4
K:Ab
V:1 treble nm="Grand Piano"
V:4 treble 
V:2 bass 
V:3 bass 
V:1
 z4 z2[Q:1/4=100] EE | A2 A2 AGAB | c4 c2 cc | [Ec]BG-[GB] [EGc]2 B2 |[M:3/4] A6 |[M:1/4] EE | %6
[M:4/4] A2 A2 AGAB | c4 c2 cc | B2 e2 [Fe]2 [A=d]2 |[M:3/4] [Ge]6 |[M:1/4] ee | %11
[M:4/4] [EGe][EBd] [EBd]4 [Ece]2 | [EBd]2 [EAc]4 cc | [=Ec][GB] [GB]4 [Ac]2 | %14
 [GB]2 [FA]4 [_GA][GA] | [FA][=EG][FA][FB] [FA]2 [_EG]F | %16
[M:9/8] E=DE A [Ac]2 [Ae]3[Q:1/4=99][Q:1/4=97][Q:1/4=96][Q:1/4=94][Q:1/4=93][Q:1/4=91][Q:1/4=90][Q:1/4=88][Q:1/4=87][Q:1/4=85][Q:1/4=84][Q:1/4=82][Q:1/4=81][Q:1/4=79][Q:1/4=78][Q:1/4=76] | %17
[M:4/4] [Ge][Gd][Gc][Gd] [Gc]2 [EB]2 |[M:3/4] [CEA]6 |] %19
V:2
 z4 z2 E,E, | [A,CE]2 [A,CE]2 [A,E]-[A,B,E][K:treble][A,E]-[A,DE] | [A,EA]4 [A,EA]2 [A,EA][A,EA] | %3
 z D z D E,2 [E,DE]2 |[M:3/4] [A,CE]6 |[M:1/4] [E,D][E,D] | %6
[M:4/4][K:treble] [A,CE]2 [A,CE]2 [A,E]-[A,B,E][A,E]-[A,DE] | [A,EA]4 [A,EA]2 [=A,E_G][A,EG] | %8
 [B,EG]2 [B,G]2[K:bass] [B,,B,]2 [B,,B,]2 |[M:3/4] [E,B,]6 |[M:1/4][K:treble] GG | %11
[M:4/4][K:bass] E,E, E,4 E,2 | A,2 A,4 EE | [C,C][C,C] [C,C]4 [C,C]2 | [F,C]2 [F,C]4 [E,C][E,C] | %15
 [D,D][D,D][D,D][D,D] [D,D]2 [D,A,][D,A,D] |[M:9/8] [E,A,C][E,A,_C][E,A,=C] [E,CE] [E,E]2 [E,C]3 | %17
[M:4/4] [E,B,][E,B,][E,E][E,E] [E,E]2 [E,D]2 |[M:3/4] [A,,A,]6 |] %19
V:3
 x8 | z4 .C2[K:treble] .C2 | x8 | E,2 E,2 z4 |[M:3/4] x6 |[M:1/4] x2 | %6
[M:4/4][K:treble] z4 .C2 .C2 | x8 | x4[K:bass] x4 |[M:3/4] x6 |[M:1/4][K:treble] x2 | %11
[M:4/4][K:bass] x8 | x8 | x8 | x8 | x8 |[M:9/8] x9 |[M:4/4] x8 |[M:3/4] x6 |] %19
V:4
 x8 | x8 | x8 | G2 .[C=A]2 z4 |[M:3/4] x6 |[M:1/4] x2 |[M:4/4] x8 | x8 | x8 |[M:3/4] x6 | %10
[M:1/4] x2 |[M:4/4] x8 | x8 | x8 | x8 | x8 |[M:9/8] x9 |[M:4/4] x8 |[M:3/4] x6 |] %19

